X:638
T:Ryska polskan,
S:uppt. efter »Florsen» i Burs.
R:kadrilj
O:Gotland, Burs
M:2/4
L:1/16
K:G
B2AB c2B2|A2G2 F2E2|DBAB c2B2|B4 B4|
{c}B2AB c2B2|A2G2F2E2|DBAB c2B2|B4 A4:|
|:{c}BcdB G3c|BcdB G3c|BcdB G2B2|LB4 LA4|
{c}BcdB G3c|BcdB G2g2|e2c2A2F2|G4 z4:|
|:g4 f2ef|g2d2B2G2|[G,EB]3g f2ef|agfe d4|
{B}[G,GB]3g f2ef|g2d2B2G2|{c}e3c A2F2|G2B2 G2 z2:|

